!!!OTL: Taiyang chulai hongdundun
!!!ARE: Asia, China,ÿShandong Rizhao
!! III, 336
!!!SCT: C1762
!!!YEM: Copyright 1995, estate of Helmut Schaffrath.
**kern
*ICvox
*Ivox
*M2/4
*k[f#c#]
*D:
{4b
4b
=1
8b
8dd
4b
=2
8.ee
16ff#
8ee
8dd
=3
8b
8dd
4a
=4
8ee
8a
8b
16cc#
16b
=5
4.a
8b
=6
8a
8f#
4r}
=7
{8f#
8a
8b
8a
=8
8b
8dd
8b
8a
=9
8f#
8e
8e
8d
=10
8e
8f#
8a
8b
=11
8.f#
16a
8f#
8e
=12
4.d
8e
=13
4d
4r}
=14
{8dd
8b
4b
=15
8dd
8b
8b
8dd
=16
8ee
8ff#
4dd
=17
4b
4a
=18
8ee
8cc#
8b
16cc#
16b
=19
4.a
8b
=20
8a
8f#
4r}
=21
{8f#
8a
8b
8a
=22
8b
8dd
8b
8a
=23
8f#
8e
8e
8d
=24
8e
8f#
8a
8b
=25
8.f#
16a
8f#
8e
=26
4.d
8e
=27
4d
4r}
==
!!!AGN: Xiaodiao, Qiaolang diao
!!!AMT: simple duple
!!!AIN: vox
!!!EED: Helmut Schaffrath
!!!EEV: 1.0
*-
